markets/SNXLIGHT.svg

<svg width="42" height="42" viewBox="0 0 42 42" fill="none" xmlns="http://www.w3.org/2000/svg">
<path d="M42 21C42 32.598 32.598 42 21 42C9.40202 42 0 32.598 0 21C0 9.40202 9.40202 0 21 0C32.598 0 42 9.40202 42 21Z" fill="#00D1FF"/>
<path d="M14.1502 15.9683C13.9658 15.7591 13.7388 15.6543 13.4686 15.6543H7.9434C7.89432 15.6543 7.85417 15.6389 7.82393 15.6081C7.7932 15.5777 7.77783 15.5435 7.77783 15.5067V11.8143C7.77783 11.7775 7.7932 11.7437 7.82393 11.7129C7.85417 11.6821 7.89432 11.6667 7.9434 11.6667H13.7819C15.2552 11.6667 16.5262 12.264 17.5945 13.4575L19.0127 15.1743L16.2501 18.5159L14.1502 15.9683ZM24.354 13.4391C25.4223 12.2575 26.6992 11.6667 28.1849 11.6667H34.0051C34.0542 11.6667 34.0908 11.6791 34.1156 11.7035C34.1399 11.7283 34.1523 11.7651 34.1523 11.8143V15.5067C34.1523 15.5435 34.1399 15.5777 34.1156 15.6081C34.0908 15.6389 34.0542 15.6543 34.0051 15.6543H28.4798C28.2097 15.6543 27.9826 15.7591 27.7982 15.9683L23.7279 20.8791L27.8166 25.8267C28.001 26.024 28.2216 26.1224 28.4798 26.1224H34.0051C34.0542 26.1224 34.0908 26.1378 34.1156 26.1686C34.1399 26.1994 34.1523 26.2396 34.1523 26.2883V29.9807C34.1523 30.0175 34.1399 30.0518 34.1156 30.0821C34.0908 30.1129 34.0542 30.1283 34.0051 30.1283H28.1849C26.6992 30.1283 25.4282 29.5316 24.3724 28.3375L20.9837 24.2391L17.5945 28.3375C16.5262 29.5316 15.2492 30.1283 13.7636 30.1283H7.9434C7.89432 30.1283 7.85715 30.1129 7.83286 30.0821C7.80807 30.0513 7.79617 30.0116 7.79617 29.9619V26.2694C7.79617 26.2327 7.80807 26.1989 7.83286 26.1681C7.85715 26.1373 7.89432 26.1219 7.9434 26.1219H13.4686C13.7264 26.1219 13.9534 26.0175 14.1502 25.8078L18.1467 20.971L24.354 13.4391Z" fill="#0B0B22"/>
</svg>

<svg xmlns="http://www.w3.org/2000/svg" width="42" height="42" fill="none"><path fill="#00D1FF" d="M42 21c0 11.598-9.402 21-21 21S0 32.598 0 21 9.402 0 21 0s21 9.402 21 21Z"/><path fill="#0B0B22" d="M14.15 15.968a.873.873 0 0 0-.681-.314H7.943a.16.16 0 0 1-.12-.046.14.14 0 0 1-.045-.101v-3.693c0-.037.015-.07.046-.101a.16.16 0 0 1 .12-.046h5.838c1.473 0 2.744.597 3.813 1.79l1.418 1.717-2.763 3.342-2.1-2.548Zm10.204-2.529c1.068-1.181 2.345-1.772 3.83-1.772h5.821c.05 0 .086.012.11.037.025.024.037.061.037.11v3.693a.16.16 0 0 1-.036.101c-.025.03-.062.046-.11.046H28.48a.873.873 0 0 0-.682.314l-4.07 4.911 4.089 4.948a.875.875 0 0 0 .663.295h5.525c.05 0 .086.016.11.047.025.03.037.07.037.12v3.692a.16.16 0 0 1-.036.101c-.025.03-.062.046-.11.046h-5.821c-1.486 0-2.757-.596-3.813-1.79l-3.388-4.099-3.39 4.098c-1.068 1.195-2.345 1.791-3.83 1.791h-5.82c-.05 0-.087-.015-.111-.046a.185.185 0 0 1-.037-.12v-3.693c0-.036.012-.07.037-.1.024-.032.061-.047.11-.047h5.526c.257 0 .484-.105.681-.314l3.997-4.837 6.207-7.532Z"/></svg>
